images/boson.svg

<svg height="250" viewBox="0 0 250 250" width="250" xmlns="http://www.w3.org/2000/svg" xmlns:xlink="http://www.w3.org/1999/xlink"><linearGradient id="a"><stop offset="0" stop-color="#5bf3bf"/><stop offset="0" stop-color="#63f2c1"/><stop offset="1" stop-color="#00faa6"/></linearGradient><linearGradient id="b" gradientTransform="matrix(.408497 0 0 -.408497 0 323.529412)" gradientUnits="userSpaceOnUse" x1="125.549896" x2="486.420013" xlink:href="#a" y1="486.176605" y2="486.176605"/><linearGradient id="c" gradientTransform="matrix(.408497 0 0 -.408497 0 323.529412)" gradientUnits="userSpaceOnUse" x1="90.892303" x2="521.107727" xlink:href="#a" y1="486.105011" y2="486.105011"/><path d="m51.308594 84.96875c13.929687-1.023438 29.289062 7.105469 37.5 19.6875 1.304687-1.550781 2.492187-3.0625 3.839844-4.492188 8.25-8.824218 23.609374-7.3125 30.554687 2.328126 4.617187 6.414062 6.984375 13.5625 9.886719 20.546874 2 4.820313 3.878906 9.761719 6.617187 14.296876 2.695313 4.453124 7.3125 4.453124 10.007813 0 2.285156-3.714844 3.511718-8.332032 4.328125-12.417969 1.265625-6.207031 2.535156-12.089844 5.882812-17.769531 4.167969-7.066407 9.804688-13.113282 17.851563-17.320313 6.414062-3.308594 13.152344-5.308594 20.914062-5.066406v13.6875c-17.726562.816406-28.714844 14.621093-28.265625 26.960937.40625 12.050782 11.3125 25.039063 28.308594 25.609375v13.320313c-10.292969 2.164062-28.554687-5.800782-36.804687-18.914063-1.1875 1.265625-4.332032 8.699219-16.300782 9.722657-12.132812.898437-18.464844-5.1875-22.386718-13.890626-3.472657-7.800781-6.25-15.890624-9.394532-23.816406-.695312-1.714844-1.550781-3.472656-2.65625-5.023437-2.859375-4.042969-7.800781-3.226563-11.109375 1.472656-3.554687 5.023437-4.535156 10.621094-5.515625 16.257813-1.46875 8.578124-5.351562 16.09375-12.296875 22.464843-5.921875 5.476563-12.742187 9.558594-21.238281 11.277344-3.066406.609375-6.25.773437-9.683594 1.140625 0-4.902344 0-9.394531 0-14.132812 8.292969.121093 15.195313-2.941407 20.464844-8.25 5.882812-5.882813 8.867188-12.867188 7.804688-20.753907-1.390626-10.457031-11.152344-22.589843-28.390626-23.488281.082032-4.371094.082032-8.824219.082032-13.4375zm0 0" fill="url(#b)"/><path d="m212.867188 70.671875v108.578125h-175.734376v-108.578125zm14.09375-14.09375h-203.921876v136.761719h203.921876zm0 0" fill="url(#c)"/></svg>

<!-- Generator: Adobe Illustrator 24.1.0, SVG Export Plug-In . SVG Version: 6.00 Build 0)  -->
<svg xmlns="http://www.w3.org/2000/svg" xmlns:xlink="http://www.w3.org/1999/xlink" width="250px" height="250px" viewBox="0 0 250 250" version="1.1">
<defs>
<linearGradient id="linear0" gradientUnits="userSpaceOnUse" x1="125.549896" y1="486.176605" x2="486.420013" y2="486.176605" gradientTransform="matrix(0.408497,0,0,-0.408497,0,323.529412)">
<stop offset="0" style="stop-color:rgb(35.686275%,95.294118%,74.901962%);stop-opacity:1;"/>
<stop offset="0" style="stop-color:rgb(38.82353%,94.901961%,75.686276%);stop-opacity:1;"/>
<stop offset="1" style="stop-color:rgb(0%,98.039216%,65.098041%);stop-opacity:1;"/>
</linearGradient>
<linearGradient id="linear1" gradientUnits="userSpaceOnUse" x1="90.892303" y1="486.105011" x2="521.107727" y2="486.105011" gradientTransform="matrix(0.408497,0,0,-0.408497,0,323.529412)">
<stop offset="0" style="stop-color:rgb(35.686275%,95.294118%,74.901962%);stop-opacity:1;"/>
<stop offset="0" style="stop-color:rgb(38.82353%,94.901961%,75.686276%);stop-opacity:1;"/>
<stop offset="1" style="stop-color:rgb(0%,98.039216%,65.098041%);stop-opacity:1;"/>
</linearGradient>
</defs>
<g id="surface1">
<path style=" stroke:none;fill-rule:nonzero;fill:url(#linear0);" d="M 51.308594 84.96875 C 65.238281 83.945312 80.597656 92.074219 88.808594 104.65625 C 90.113281 103.105469 91.300781 101.59375 92.648438 100.164062 C 100.898438 91.339844 116.257812 92.851562 123.203125 102.492188 C 127.820312 108.90625 130.1875 116.054688 133.089844 123.039062 C 135.089844 127.859375 136.96875 132.800781 139.707031 137.335938 C 142.402344 141.789062 147.019531 141.789062 149.714844 137.335938 C 152 133.621094 153.226562 129.003906 154.042969 124.917969 C 155.308594 118.710938 156.578125 112.828125 159.925781 107.148438 C 164.09375 100.082031 169.730469 94.035156 177.777344 89.828125 C 184.191406 86.519531 190.929688 84.519531 198.691406 84.761719 C 198.691406 89.421875 198.691406 93.953125 198.691406 98.449219 C 180.964844 99.265625 169.976562 113.070312 170.425781 125.410156 C 170.832031 137.460938 181.738281 150.449219 198.734375 151.019531 C 198.734375 155.472656 198.734375 159.886719 198.734375 164.339844 C 188.441406 166.503906 170.179688 158.539062 161.929688 145.425781 C 160.742188 146.691406 157.597656 154.125 145.628906 155.148438 C 133.496094 156.046875 127.164062 149.960938 123.242188 141.257812 C 119.769531 133.457031 116.992188 125.367188 113.847656 117.441406 C 113.152344 115.726562 112.296875 113.96875 111.191406 112.417969 C 108.332031 108.375 103.390625 109.191406 100.082031 113.890625 C 96.527344 118.914062 95.546875 124.511719 94.566406 130.148438 C 93.097656 138.726562 89.214844 146.242188 82.269531 152.613281 C 76.347656 158.089844 69.527344 162.171875 61.03125 163.890625 C 57.964844 164.5 54.78125 164.664062 51.347656 165.03125 C 51.347656 160.128906 51.347656 155.636719 51.347656 150.898438 C 59.640625 151.019531 66.542969 147.957031 71.8125 142.648438 C 77.695312 136.765625 80.679688 129.78125 79.617188 121.894531 C 78.226562 111.4375 68.464844 99.304688 51.226562 98.40625 C 51.308594 94.035156 51.308594 89.582031 51.308594 84.96875 Z M 51.308594 84.96875 "/>
<path style=" stroke:none;fill-rule:nonzero;fill:url(#linear1);" d="M 212.867188 70.671875 L 212.867188 179.25 L 37.132812 179.25 L 37.132812 70.671875 L 212.867188 70.671875 M 226.960938 56.578125 L 23.039062 56.578125 L 23.039062 193.339844 L 226.960938 193.339844 Z M 226.960938 56.578125 "/>
</g>
</svg>
